web/packages/design/src/ResourceIcon/assets/datadog-light.svg

<svg width="72" height="72" viewBox="0 0 72 72" fill="none" xmlns="http://www.w3.org/2000/svg">
<g clip-path="url(#clip0_17025_11966)">
<path fill-rule="evenodd" clip-rule="evenodd" d="M58.7047 51.1224L52.7147 47.1713L47.7176 55.5182L41.9058 53.8189L36.7886 61.6294L37.0509 64.0879L64.8739 58.9614L63.2578 41.5773L58.7047 51.1224ZM32.7576 43.6272L37.2216 43.0134C37.9439 43.338 38.4467 43.4616 39.3127 43.6819C40.6614 44.0333 42.2228 44.3705 44.5351 43.2051C45.0732 42.9386 46.1941 41.9136 46.6473 41.3292L64.937 38.0113L66.8028 60.5926L35.4693 66.2396L32.7576 43.6272ZM66.7321 35.4905L64.9269 35.8344L61.4585 0L2.35999 6.85275L9.64072 65.9361L16.5582 64.9321C16.0058 64.1434 15.1456 63.1891 13.6767 61.9674C11.6394 60.2748 12.36 57.4 13.5615 55.5846C15.1515 52.5173 23.3437 48.6192 22.8796 43.7164C22.7131 41.9338 22.4297 39.6131 20.775 38.0231C20.7128 38.6832 20.8246 39.3188 20.8246 39.3188C20.8246 39.3188 20.1452 38.4519 19.8063 37.2697C19.47 36.8165 19.206 36.6719 18.8486 36.0665C18.5939 36.7669 18.6275 37.5791 18.6275 37.5791C18.6275 37.5791 18.0717 36.2658 17.9817 35.1576C17.6521 35.6537 17.5689 36.5962 17.5689 36.5962C17.5689 36.5962 16.8466 34.5261 17.0114 33.4112C16.6818 32.4408 15.7048 30.5153 15.9814 26.1388C17.785 27.4026 21.7554 27.1024 23.3025 24.8221C23.8162 24.067 24.1677 22.0053 23.046 17.9433C22.3255 15.3384 20.5412 11.4597 19.8459 9.9882L19.7626 10.0479C20.1292 11.2335 20.8851 13.719 21.1752 14.9239C22.053 18.5789 22.2885 19.8511 21.8765 21.5361C21.5258 23.0009 20.685 23.9594 18.5535 25.0306C16.422 26.1052 13.5935 23.4902 13.4144 23.3456C11.3434 21.6959 9.74162 19.0044 9.56252 17.6969C9.3767 16.2658 10.3874 15.4065 10.8969 14.2361C10.1679 14.4446 9.35484 14.8146 9.35484 14.8146C9.35484 14.8146 10.3252 13.8106 11.5217 12.942C12.0169 12.6141 12.3078 12.4056 12.83 11.9717C12.0741 11.9591 11.4603 11.981 11.4603 11.981C11.4603 11.981 12.7207 11.2999 14.0273 10.8038C13.0713 10.7618 12.1565 10.7971 12.1565 10.7971C12.1565 10.7971 14.969 9.5392 17.1905 8.61597C18.7183 7.98955 20.2108 8.17454 21.0491 9.38701C22.1497 10.9753 23.3059 11.838 25.756 12.3728C27.2603 11.706 27.7177 11.363 29.6079 10.8484C31.2719 9.01873 32.5785 8.78161 32.5785 8.78161C32.5785 8.78161 31.9302 9.37608 31.757 10.3102C32.7004 9.56695 33.7347 8.94642 33.7347 8.94642C33.7347 8.94642 33.3344 9.44082 32.9611 10.2262L33.0477 10.3548C34.1484 9.69475 35.4424 9.17428 35.4424 9.17428C35.4424 9.17428 35.0724 9.64178 34.6386 10.2472C35.4685 10.2405 37.1518 10.2825 37.8051 10.3565C41.662 10.4414 42.4625 6.23727 43.9423 5.71007C45.7955 5.04833 46.6237 4.6481 49.7819 7.74992C52.4919 10.4128 54.6091 15.1795 53.558 16.2473C52.6768 17.1336 50.938 15.9017 49.0108 13.4995C47.9926 12.2273 47.2224 10.7239 46.8617 8.81272C46.5573 7.20001 45.3726 6.26417 45.3726 6.26417C45.3726 6.26417 46.0604 7.7928 46.0604 9.14317C46.0604 9.88058 46.1529 12.6377 47.3351 14.1848C47.2182 14.411 47.1635 15.3039 47.034 15.4746C45.6585 13.8123 42.7046 12.6225 42.2228 12.2719C43.8532 13.608 47.6008 16.677 49.0403 19.6182C50.4016 22.3997 49.5994 24.9491 50.2881 25.6091C50.484 25.7983 53.2158 29.202 53.7413 30.9122C54.6578 33.893 53.796 37.025 52.5961 38.9682L49.2454 39.4904C48.7552 39.3541 48.4248 39.286 47.985 39.0313C48.2272 38.6024 48.709 37.5329 48.714 37.3126L48.5248 36.9805C47.4822 38.4578 45.735 39.8923 44.2837 40.7163C42.3843 41.7925 40.1948 41.6269 38.7695 41.1855C34.7243 39.9377 30.8994 37.2041 29.977 36.4861C29.977 36.4861 29.9484 37.0595 30.1225 37.1882C31.1424 38.3384 33.4791 40.4195 35.7375 41.8699L30.9229 42.3996L33.1991 60.1226C32.1901 60.2672 32.0328 60.3379 30.928 60.4951C29.9543 57.0553 28.0919 54.8094 26.0562 53.5011C24.261 52.3475 21.7848 52.0876 19.4145 52.5568L19.2623 52.7334C20.9103 52.5619 22.856 52.8007 24.8547 54.0661C26.8163 55.3063 28.3971 58.5099 28.9789 60.4388C29.7239 62.9041 30.2393 65.5409 28.234 68.3358C26.8071 70.3227 22.6416 71.4208 19.2766 69.0455C20.1755 70.4909 21.3905 71.6731 23.0259 71.8959C25.4542 72.2255 27.7589 71.8042 29.3455 70.1755C30.7001 68.7831 31.4182 65.8713 31.229 62.8048L33.3723 62.4937L34.1458 67.9978L69.6271 63.7255L66.7321 35.4905ZM45.1455 20.5431C45.0463 20.7693 44.8908 20.9173 45.1245 21.653L45.1388 21.6951L45.1758 21.7901L45.2734 22.0104C45.6946 22.8714 46.1571 23.6836 46.9298 24.0981C47.1299 24.0645 47.3367 24.0418 47.5512 24.0309C48.2768 23.9989 48.735 24.1141 49.026 24.2705C49.052 24.1259 49.0579 23.914 49.0419 23.6021C48.9856 22.5115 49.258 20.6566 47.1619 19.6804C46.3706 19.313 45.2607 19.4265 44.8908 19.8848C44.958 19.8932 45.0186 19.9075 45.0657 19.9234C45.6248 20.1193 45.2456 20.3119 45.1455 20.5431ZM51.0204 30.7188C50.7455 30.5675 49.4607 30.6272 48.5576 30.7348C46.8373 30.9374 44.9799 31.5344 44.5729 31.8523C43.833 32.424 44.1693 33.4213 44.7159 33.8307C46.2487 34.9759 47.5924 35.7436 49.0108 35.557C49.8819 35.4426 50.6496 34.0636 51.1936 32.8125C51.5661 31.9506 51.5661 31.0207 51.0204 30.7188ZM35.7896 21.8935C36.2748 21.4327 33.3731 20.8273 31.1214 22.3627C29.4607 23.4953 29.4078 25.9236 30.9978 27.3C31.1567 27.4362 31.2879 27.5329 31.4106 27.612C31.8747 27.3934 32.4036 27.1722 33.0124 26.9746C34.0407 26.6408 34.8958 26.4684 35.5988 26.3768C35.9351 26.0009 36.3261 25.3392 36.2286 24.141C36.0957 22.5157 34.8639 22.7738 35.7896 21.8935Z" fill="#632CA6"/>
</g>
<defs>
<clipPath id="clip0_17025_11966">
<rect width="72" height="72" fill="white"/>
</clipPath>
</defs>
</svg>

<svg xmlns="http://www.w3.org/2000/svg" width="72" height="72" fill="none" viewBox="0 0 72 72"><g clip-path="url(#a)"><path fill="#632ca6" fill-rule="evenodd" d="m58.705 51.122-5.99-3.95-4.997 8.346-5.812-1.7-5.117 7.811.262 2.459 27.823-5.127-1.616-17.384zm-25.947-7.495 4.464-.614c.722.325 1.225.449 2.09.669 1.35.351 2.91.688 5.223-.477.538-.266 1.66-1.291 2.112-1.876l18.29-3.318 1.866 22.582-31.334 5.647zm33.974-8.137-1.805.344L61.458 0 2.36 6.853l7.28 59.083 6.918-1.004c-.552-.789-1.412-1.743-2.881-2.965-2.038-1.692-1.317-4.567-.115-6.382 1.59-3.068 9.782-6.966 9.318-11.869-.167-1.782-.45-4.103-2.105-5.693-.062.66.05 1.296.05 1.296s-.68-.867-1.019-2.05c-.336-.453-.6-.597-.957-1.203-.255.7-.221 1.513-.221 1.513s-.556-1.313-.646-2.421c-.33.496-.413 1.438-.413 1.438s-.722-2.07-.558-3.185c-.33-.97-1.306-2.896-1.03-7.272 1.804 1.264 5.774.963 7.321-1.317.514-.755.866-2.817-.256-6.879-.72-2.605-2.505-6.483-3.2-7.955l-.083.06c.366 1.185 1.122 3.671 1.412 4.876.878 3.655 1.113 4.927.701 6.612-.35 1.465-1.191 2.423-3.323 3.495-2.131 1.074-4.96-1.54-5.139-1.685-2.07-1.65-3.672-4.342-3.851-5.65-.186-1.43.824-2.29 1.334-3.46-.73.209-1.542.579-1.542.579s.97-1.004 2.167-1.873a13 13 0 0 0 1.308-.97c-.756-.013-1.37.009-1.37.009s1.26-.681 2.567-1.177c-.956-.042-1.87-.007-1.87-.007s2.812-1.258 5.034-2.181c1.527-.626 3.02-.441 3.858.771 1.1 1.588 2.257 2.451 4.707 2.986 1.504-.667 1.962-1.01 3.852-1.525 1.664-1.83 2.97-2.066 2.97-2.066s-.648.594-.821 1.528c.943-.743 1.978-1.364 1.978-1.364s-.4.495-.774 1.28l.087.129c1.1-.66 2.394-1.18 2.394-1.18s-.37.467-.803 1.072c.83-.006 2.513.036 3.166.11 3.857.084 4.657-4.12 6.137-4.647 1.853-.662 2.682-1.062 5.84 2.04 2.71 2.663 4.827 7.43 3.776 8.497-.881.887-2.62-.345-4.547-2.748a10.4 10.4 0 0 1-2.15-4.686c-.304-1.613-1.488-2.549-1.488-2.549s.687 1.529.687 2.88c0 .737.093 3.494 1.275 5.04-.117.227-.172 1.12-.301 1.29-1.376-1.662-4.33-2.851-4.811-3.202 1.63 1.336 5.378 4.405 6.817 7.346 1.362 2.782.56 5.331 1.248 5.991.196.19 2.928 3.593 3.453 5.303.917 2.981.055 6.113-1.145 8.056l-3.35.522c-.49-.136-.821-.204-1.261-.459.242-.429.724-1.498.729-1.718l-.19-.333c-1.042 1.478-2.789 2.912-4.24 3.736-1.9 1.076-4.09.91-5.514.47-4.046-1.248-7.87-3.982-8.793-4.7 0 0-.029.574.145.702 1.02 1.15 3.357 3.231 5.615 4.682l-4.814.53 2.276 17.723c-1.009.144-1.166.215-2.271.372-.974-3.44-2.836-5.686-4.872-6.994-1.795-1.154-4.271-1.413-6.642-.944l-.152.176c1.648-.171 3.594.068 5.593 1.333 1.961 1.24 3.542 4.444 4.124 6.373.745 2.465 1.26 5.102-.745 7.897-1.427 1.987-5.592 3.085-8.957.71.898 1.445 2.113 2.627 3.749 2.85 2.428.33 4.733-.092 6.32-1.72 1.354-1.393 2.072-4.305 1.883-7.371l2.143-.311.774 5.504 35.481-4.273zM45.146 20.543c-.1.226-.255.374-.022 1.11l.015.042.037.095.097.22c.422.861.884 1.674 1.657 2.088q.3-.05.621-.067c.726-.032 1.184.083 1.475.24.026-.145.032-.357.016-.669-.056-1.09.216-2.945-1.88-3.922-.791-.367-1.901-.253-2.271.205a1 1 0 0 1 .175.038c.559.196.18.389.08.62M51.02 30.72c-.275-.152-1.56-.092-2.462.016-1.72.202-3.578.8-3.985 1.117-.74.572-.404 1.57.143 1.979 1.533 1.145 2.876 1.913 4.295 1.726.87-.114 1.639-1.493 2.183-2.745.372-.861.372-1.791-.174-2.093m-15.23-8.826c.485-.46-2.417-1.066-4.669.47-1.66 1.132-1.713 3.56-.123 4.937.159.136.29.233.413.312.464-.219.993-.44 1.601-.637a14.3 14.3 0 0 1 2.587-.598c.336-.376.727-1.038.63-2.236-.133-1.625-1.365-1.367-.44-2.247" clip-rule="evenodd"/></g><defs><clipPath id="a"><path fill="#fff" d="M0 0h72v72H0z"/></clipPath></defs></svg>
